ion/bag-check.svg

<svg viewBox="0 0 512 512" xmlns="http://www.w3.org/2000/svg"><path d="M454.65 169.4v-.001c-6-6.04-14.15-9.42-22.65-9.4h-64v-16 0c0-61.86-50.15-112-112-112 -61.86 0-112 50.14-112 112v16H80v0c-17.68 0-32 14.32-32 32v216c0 39 33 72 72 72h272v0c18.86 0 36.98-7.37 50.48-20.55h0c13.72-13.1 21.5-31.24 21.52-50.2V191.99v0c.02-8.48-3.35-16.62-9.35-22.6ZM332.49 274l-89.6 112v0c-2.98 3.72-7.47 5.92-12.23 6h-.26v0c-4.68 0-9.12-2.05-12.16-5.6l-38.4-44.88h-.001c-5.75-6.72-4.96-16.82 1.76-22.56 6.71-5.75 16.81-4.96 22.56 1.76l25.84 30.19 77.51-96.91v0c5.52-6.91 15.59-8.03 22.5-2.5 6.9 5.52 8.02 15.59 2.5 22.5ZM336 160H176v-16 0c0-44.19 35.81-80 80-80 44.18 0 80 35.81 80 80Z"/></svg>

<svg xmlns="http://www.w3.org/2000/svg" viewBox="0 0 512 512"><path d="M454.65,169.4A31.82,31.82,0,0,0,432,160H368V144a112,112,0,0,0-224,0v16H80a32,32,0,0,0-32,32V408c0,39,33,72,72,72H392a72.22,72.22,0,0,0,50.48-20.55A69.48,69.48,0,0,0,464,409.25V192A31.75,31.75,0,0,0,454.65,169.4ZM332.49,274l-89.6,112a16,16,0,0,1-12.23,6h-.26a16,16,0,0,1-12.16-5.6l-38.4-44.88a16,16,0,1,1,24.32-20.8L230,350.91,307.51,254a16,16,0,0,1,25,20ZM336,160H176V144a80,80,0,0,1,160,0Z"/></svg>
